X:0672
T:Jenny's Babee.
M:C|
L:1/8
Q:1/2=100
I: :: ::
Z:Jack Campin * www.campin.me.uk * 2009
K:D
f|abag f(dd)f|B/B/B (ed) c(AA)f|abag f(dd)f|B/B/B (cA) d3:|
g|fdge f(dd)f|B/B/B (eB) c(AA)g|fdge f(dd)f|B/B/B (cA) d3:|
<end>
<start>
